fonts/logo.svg

<svg xmlns="http://www.w3.org/2000/svg"><defs><font horiz-adv-x="1000"><font-face font-family="logo" font-weight="400" ascent="850" descent="-150"/><glyph glyph-name="icon_13008" unicode="" d="M100 750h213v-516h-213v516zm587-542h213v-258h-213v258zm-587-52h213v-206h-213v206zm299 594h213v-258h-213v258zm0-336h213v-464h-213v464zm288 336h213v-464h-213v464z" horiz-adv-x="1000"/></font></defs></svg>

<svg xmlns="http://www.w3.org/2000/svg"><defs><font horiz-adv-x="1000"><font-face font-family="logo" font-weight="400" ascent="850" descent="-150"/><glyph glyph-name="icon_13008" unicode="" d="M100 750h213V234H100v516zm587-542h213V-50H687v258zm-587-52h213V-50H100v206zm299 594h213V492H399v258zm0-336h213V-50H399v464zm288 336h213V286H687v464z" horiz-adv-x="1000"/></font></defs></svg>
